X:1
T:Fra tutte le pene
T:Fra tutte le pene
T:(Zweite Komposition)
T:Ludvig van Beethoven
C:Ludvig van Beethoven
%%score [ ( 1 2 ) ( 3 4 ) ]
L:1/8
Q:1/4=70
M:2/4
K:Bb
V:1 treble nm="S\nA"
V:2 treble 
V:3 bass nm="T\nB"
V:4 bass 
V:1
 F | B2 B3/2 B/ | B/c/ d z B | B2 B3/2 B/ | F F z B | cB c B | A B z B | B2 B B | F F z F | %9
w: |||||||||
 G2 G G | A2 A A | G2 =E E | F z z2 | z D C =E/ E/ | (=E2 F) F || A2 A3/2 A/ | A B z B/d/ | %17
w: ||||so- spi- ro per|te. * Mi|man- ca~il va-|lo- re per *|
 c2 c B | B A z A | A2 A3/2 A/ | A B z B/_d/ | c2 c B | A2 z _d | _dc c B | !fermata!A3 F | %25
w: tan- to sof-|fri- re; mi|man- ca l`ar-|di- re per *|chie- der mer-|cè per|chie- * der mer|cè. Fra|
 B2 B3/2 B/ | B/c/ d z B | B2 B3/2 B/ | F F z B | cB c B | A B z B | B2 B B | F F z F | %33
w: tut- te le|pe- * ne v`è|pe- na mag-|gio- re? Son|pres- * so~al mio|be- ne, so-|spi- ro d`a-|mo- re, e|
 F2 F3/2 F/ | G G z B | F2 F F | F B2 G/E/ | D2 F/E/ D/E/ | (E2 D) |] %39
w: dir- gli non|o- so: so-|spi- ro per|te, * so- *|spi- ro * per *|te. *|
V:2
 B | d2 d3/2 d/ | d/e/ f z B | e2 f3/2 g/ | B A z d | ed e d | d/c/ B z f | gf g f | f/e/ d z d | %9
w: Fra|tut- te le|pe- * ne v`è|pe- na mag-|gio- re? Son|pres- * so~al mio|be- * ne, so-|spi- * ro d`a-|mo- * re, e|
 c2 c c | c2 f/=e/ d/c/ | c2 B/A/B/c/ | A (a/g/ f/=e/d/^c/) | (^c/d/B/G/) F A/G/ | (G2 F) F || %15
w: dir- gli non|o- so: * so- *|spi- ro * per *|te, so- * * * * *|spi- * * * ro per *|te. * *|
 c2 c3/2 c/ | c d z d/f/ | f =e _e d | d c z c | c2 c3/2 c/ | c _d z d/f/ | f =e _e _d | c f f2- | %23
w: ||||||||
 fe e _d | !fermata!c3 B | d2 d3/2 d/ | d/e/ f z B | e2 f3/2 g/ | B A z d | ed e d | d/c/ B z f | %31
w: ||||||||
 gf g f | f/e/ d z d | d2 d3/2 d/ | e e z g | B2 A A | f2 ^f/g/e/c/ | B2 d/c/ B/c/ | (c2 B) |] %39
w: ||||* * per|te so- * * *|spi- ro * per *|te. *|
V:3
 D | F2 F3/2 F/ | F/E/ D z B, | B,2 D3/2 E/ | D C z F | F2 F F | E D z D | ED E D | D/C/ B, z D | %9
 =E2 E E | F2 C C | C2 C C | C z z F | FD/B,/ A, C/B,/ | (B,2 A,) A, || F2 E3/2 E/ | E D z F | %17
 F2 F F | F F z F | F2 E3/2 E/ | E _D z F | F2 F F | F2 z F | F2 F F | !fermata!F3 D | F2 F3/2 F/ | %26
 F/E/ D z B, | B,2 D3/2 E/ | D C z F | F2 F F | E D z D | ED E D | D/C/ B, z B, | B,2 B,3/2 B,/ | %34
 B, B, z E | D2 C C | B,3 B, | B,2 A, A, | (A,2 B,) |] %39
V:4
 B, | B,2 B,3/2 B,/ | B, B, z B, | G,2 F,3/2 E,/ | F, F, z B, | A,B, A, B, | F, B, z B, | %7
w: |||||||
 B,2 B, B, | A, B, z B, | B,2 B, B, | A,2 F, F, | =E,2 C, C, | F, z z A, | B,2 C C, | %14
w: |||||* so-|spi- ro per-|
 (C,2 F,) F, || F,2 F,3/2 F,/ | F, B, z B, | A,2 B, B, | F, F, z F, | F,2 F,3/2 F,/ | F, B, z B, | %21
w: te. * *|||||||
 A,2 B, B, | F,2 z B, | A,2 B, B, | !fermata!F,3 B, | B,2 B,3/2 B,/ | B, B, z B, | G,2 F,3/2 E,/ | %28
w: |||||||
 F, F, z B, | A,B, A, B, | F, B, z B, | B,2 B, B, | A, B, z B, | _A,2 A,3/2 A,/ | G, G, z E, | %35
w: |||||||
 F,2 E, E, | (D,2 E,) E, | F,2 F, F, | (F,2 B,,) |] %39
w: ||||

